img/phone.svg

<svg xmlns="http://www.w3.org/2000/svg" width="21" height="21" viewBox="0 0 21 21" fill="balck">
  <path d="M0 4.4592C0.00957801 3.46104 0.41117 2.61338 1.14047 1.93403C1.68915 1.42366 2.2652 0.937231 2.86314 0.485696C3.90236 -0.299017 5.01751 -0.121824 5.77896 0.937231C6.02115 1.27383 6.20108 1.65627 6.40495 2.02023C7.00016 3.08339 7.60494 4.14176 8.17894 5.21587C8.36913 5.57162 8.52854 5.96022 8.612 6.35291C8.75772 7.03979 8.49364 7.60421 7.89981 7.97297C7.63026 8.1399 7.31213 8.2391 7.00495 8.33283C6.54794 8.47239 6.3598 8.86099 6.57462 9.28721C6.61293 9.36246 6.66356 9.43293 6.71624 9.49929C8.11395 11.2575 9.69432 12.8331 11.4615 14.2185C11.6079 14.3335 11.8063 14.4142 11.9903 14.4409C12.3228 14.4894 12.5397 14.3129 12.6313 13.988C12.6799 13.8162 12.721 13.6404 12.7866 13.4749C13.1609 12.5287 13.9504 12.1326 14.9273 12.4096C15.1552 12.4739 15.3816 12.5643 15.5889 12.6785C16.9545 13.4324 18.3166 14.1932 19.6767 14.9581C20.1426 15.2201 20.5004 15.593 20.7138 16.089C21.0135 16.7861 20.9752 17.4716 20.5195 18.0778C20.0536 18.6969 19.5624 19.3038 19.026 19.8613C17.9225 21.01 16.5884 21.2905 15.1148 20.6987C9.58485 18.4759 5.19949 14.8835 2.16805 9.72027C1.50512 8.59143 0.972853 7.38597 0.398856 6.20651C0.135461 5.66535 0.00547315 5.08178 0 4.4592Z"/>
</svg>

<svg xmlns="http://www.w3.org/2000/svg" width="21" height="21" fill="balck"><path d="M0 4.46c.01-.999.411-1.847 1.14-2.526.55-.51 1.125-.997 1.723-1.448C3.903-.3 5.018-.122 5.78.937c.242.337.422.72.626 1.083.595 1.063 1.2 2.122 1.774 3.196.19.356.35.744.433 1.137.146.687-.118 1.251-.712 1.62-.27.167-.588.266-.895.36-.457.14-.645.528-.43.954.038.075.089.146.141.212a28.542 28.542 0 004.745 4.72c.147.115.345.195.53.222.332.048.549-.128.64-.453.049-.172.09-.348.156-.513.374-.946 1.163-1.342 2.14-1.065.228.064.455.154.662.268 1.365.754 2.728 1.515 4.088 2.28.466.262.823.635 1.037 1.131.3.697.261 1.383-.194 1.989a19.314 19.314 0 01-1.494 1.783c-1.104 1.149-2.438 1.43-3.911.838C9.586 18.476 5.2 14.883 2.169 9.72 1.505 8.591.973 7.386.398 6.207A4.022 4.022 0 010 4.459z"/></svg>
